imgs/k.svg

<?xml version="1.0" encoding="UTF-8" standalone="no"?>
<!-- Created with Inkscape (http://www.inkscape.org/) -->

<svg
   width="35"
   height="46"
   viewBox="0 0 9.2604165 12.170834"
   version="1.1"
   id="svg2583"
   xmlns="http://www.w3.org/2000/svg"
   xmlns:svg="http://www.w3.org/2000/svg">
  <defs
     id="defs2580" />
  <g
     id="layer1">
    <path
       id="12"
       class="fil0"
       d="m 0.26613457,7.5334838 c 0.5362522,0.8543769 1.24125293,1.2815649 2.11500503,1.2815649 0.085312,0 0.1687512,-0.0047 0.2521876,-0.0125 L 3.3864531,8.6350497 4.6358314,8.1656734 V 8.1125483 L 4.0786428,4.7578433 2.9720785,5.0644054 c -0.1975009,0.026563 -0.3853127,0.040625 -0.5606256,0.040625 -1.2075022,0 -1.92187983,-0.6353148 -2.14531783,-1.9056297 0.4865634,0.8653145 1.18375373,1.2971912 2.09406803,1.2971912 0.4031271,0 0.8384381,-0.081563 1.3075021,-0.2443755 L 6.4070951,3.3009655 c 0.255315,-0.054688 0.4915641,-0.08125 0.7131262,-0.08125 1.0584391,0 1.7281286,0.6290627 2.0106296,1.8853176 C 8.5752259,4.2147181 7.8942863,3.7703425 7.086471,3.7703425 c -0.1912487,0 -0.3931258,0.026563 -0.6018768,0.078438 L 4.7083405,4.5372179 5.3055289,7.9090943 6.5470941,7.533468 C 6.7255317,7.506905 6.8952196,7.492843 7.0577214,7.492843 c 1.1081279,0 1.8003176,0.6462527 2.0731295,1.9387557 C 8.5367872,8.5600347 7.8736594,8.1250329 7.1445973,8.1250329 c -0.038748,0 -0.079063,0.00156 -0.1206235,0.00469 -0.4834387,-0.01094 -1.6959421,0.3756248 -3.6375181,1.1593758 h -0.00312 c -0.3278134,0.103438 -0.639064,0.155001 -0.934376,0.155001 -0.4353137,0 -0.8434388,-0.110938 -1.2240646,-0.334688 C 0.59364427,8.7400347 0.27426837,8.2144113 0.26614297,7.5334717 Z"
       style="clip-rule:evenodd;fill:#1f1a17;fill-rule:nonzero;stroke-width:0.264583;image-rendering:optimizeQuality;shape-rendering:geometricPrecision;text-rendering:geometricPrecision" />
    <g
       id="g20709"
       transform="matrix(0.78546811,0,0,0.78546811,1.0663198,4.7053631)">
      <path
         style="fill:none;stroke:#1f1a17;stroke-width:0.529167;stroke-linecap:round;stroke-linejoin:miter;stroke-miterlimit:4;stroke-dasharray:none;stroke-opacity:1"
         d="M 3.7459906,7.3158702 5.5024381,9.0723177"
         id="path17647" />
      <path
         style="fill:none;stroke:#1f1a17;stroke-width:0.529167;stroke-linecap:round;stroke-linejoin:miter;stroke-miterlimit:4;stroke-dasharray:none;stroke-opacity:1"
         d="M 5.5024381,7.412498 3.7459906,9.1689455"
         id="path17647-3" />
    </g>
  </g>
</svg>

<svg width="35" height="46" viewBox="0 0 9.26 12.171" xmlns="http://www.w3.org/2000/svg">
    <path class="fil0" d="M.266 7.533c.536.855 1.241 1.282 2.115 1.282.085 0 .169-.005.252-.012l.753-.168 1.25-.47v-.052l-.557-3.355-1.107.306c-.197.027-.385.041-.56.041C1.203 5.105.49 4.47.265 3.199c.487.866 1.184 1.298 2.094 1.298.403 0 .839-.082 1.308-.245l2.74-.951c.254-.055.49-.081.712-.081 1.059 0 1.728.629 2.01 1.885-.555-.89-1.236-1.335-2.044-1.335-.19 0-.393.027-.601.079l-1.777.688.598 3.372 1.241-.376c.179-.026.348-.04.51-.04 1.109 0 1.801.646 2.074 1.939-.594-.872-1.257-1.307-1.986-1.307-.04 0-.08.002-.121.005-.483-.011-1.696.375-3.638 1.16h-.003c-.327.103-.639.154-.934.154-.435 0-.843-.11-1.224-.335-.631-.369-.95-.895-.959-1.576Z" style="clip-rule:evenodd;fill:#1f1a17;fill-rule:nonzero;stroke-width:.264583;image-rendering:optimizeQuality;shape-rendering:geometricPrecision;text-rendering:geometricPrecision"/>
    <path style="fill:none;stroke:#1f1a17;stroke-width:.529167;stroke-linecap:round;stroke-linejoin:miter;stroke-miterlimit:4;stroke-dasharray:none;stroke-opacity:1" d="m3.746 7.316 1.756 1.756M5.502 7.412 3.746 9.17" transform="matrix(.78547 0 0 .78547 1.066 4.705)"/>
</svg>
